;FLAVOR:Marlin
;TIME:6056
;Filament used: 6.60288m
;Layer height: 0.2
;MINX:74.7
;MINY:75.8
;MINZ:0.2
;MAXX:175.3
;MAXY:106.4
;MAXZ:27.8
;Generated with Cura_SteamEngine 4.8.0
M82 ;absolute extrusion mode
G21 ; set units to millimeters
G90 ; use absolute positioning
M82 ; absolute extrusion mode
M104 S215 ; set extruder temp
M140 S60 ; set bed temp
M190 S60 ; wait for bed temp
M109 S215 ; wait for extruder temp
G28 W ; home all without mesh bed level
G80 ; mesh bed leveling
G92 E0.0 ; reset extruder distance position
G1 Y-3.0 F1000.0 ; go outside print area
G1 X60.0 E9.0 F1000.0 ; intro line
G1 X100.0 E21.5 F1000.0 ; intro line
G92 E0.0 ; reset extruder distance position
G92 E0
G92 E0
G1 F2100 E-0.8
;LAYER_COUNT:139
;LAYER:0
M107
G0 F3600 X77.102 Y78.085 Z0.2
;TYPE:SKIRT
G1 F2100 E0
G1 F1800 X77.688 Y77.555 E0.02628
G1 X78.324 Y77.088 E0.05252
G1 X79.004 Y76.687 E0.07878
G1 X79.722 Y76.357 E0.10506
G1 X80.469 Y76.102 E0.13132
G1 X81.238 Y75.923 E0.15758
G1 X82.022 Y75.823 E0.18386
G1 X82.617 Y75.8 E0.20367
G1 X167.383 Y75.8 E3.023
G1 X168.172 Y75.84 E3.04927
G1 X168.952 Y75.959 E3.07552
G1 X169.717 Y76.157 E3.1018
G1 X170.457 Y76.431 E3.12804
G1 X171.166 Y76.779 E3.15431
G1 X171.837 Y77.197 E3.18061
G1 X172.461 Y77.68 E3.20685
G1 X172.898 Y78.085 E3.22667
G1 X173.015 Y78.202 E3.23217
G1 X173.545 Y78.788 E3.25845
G1 X174.012 Y79.424 E3.28469
G1 X174.413 Y80.104 E3.31095
G1 X174.743 Y80.822 E3.33723
G1 X174.998 Y81.569 E3.36349
G1 X175.177 Y82.338 E3.38975
G1 X175.277 Y83.122 E3.41603
G1 X175.3 Y83.717 E3.43584
G1 X175.3 Y88.983 E3.61099
G1 X175.26 Y89.772 E3.63726
G1 X175.141 Y90.552 E3.66351
G1 X175.002 Y91.088 E3.68192
G1 X175.177 Y91.838 E3.70754
G1 X175.277 Y92.622 E3.73383
G1 X175.3 Y93.217 E3.75363
G1 X175.3 Y98.483 E3.92878
G1 X175.26 Y99.272 E3.95505
G1 X175.141 Y100.052 E3.9813
G1 X174.943 Y100.817 E4.00758
G1 X174.669 Y101.557 E4.03382
G1 X174.321 Y102.266 E4.06009
G1 X173.903 Y102.937 E4.08639
G1 X173.42 Y103.561 E4.11263
G1 X173.015 Y103.998 E4.13245
G1 X172.898 Y104.115 E4.13795
G1 X172.312 Y104.645 E4.16423
G1 X171.676 Y105.112 E4.19048
G1 X170.996 Y105.513 E4.21673
G1 X170.278 Y105.843 E4.24302
G1 X169.531 Y106.098 E4.26927
G1 X168.762 Y106.277 E4.29553
G1 X167.978 Y106.377 E4.32182
G1 X167.383 Y106.4 E4.34162
G1 X82.617 Y106.4 E7.16095
G1 X81.828 Y106.36 E7.18723
G1 X81.048 Y106.241 E7.21347
G1 X80.283 Y106.043 E7.23975
G1 X79.543 Y105.769 E7.266
G1 X78.834 Y105.421 E7.29227
G1 X78.163 Y105.003 E7.31856
G1 X77.539 Y104.52 E7.3448
G1 X77.102 Y104.115 E7.36462
G1 X76.985 Y103.998 E7.37012
G1 X76.455 Y103.412 E7.3964
G1 X75.988 Y102.776 E7.42265
G1 X75.587 Y102.096 E7.4489
G1 X75.257 Y101.378 E7.47519
G1 X75.002 Y100.631 E7.50144
G1 X74.823 Y99.862 E7.5277
G1 X74.723 Y99.078 E7.55399
G1 X74.7 Y98.483 E7.57379
G1 X74.7 Y93.217 E7.74894
G1 X74.74 Y92.428 E7.77522
G1 X74.859 Y91.648 E7.80146
G1 X74.998 Y91.112 E7.81988
G1 X74.823 Y90.362 E7.84549
G1 X74.723 Y89.578 E7.87178
G1 X74.7 Y88.983 E7.89158
G1 X74.7 Y83.717 E8.06673
G1 X74.74 Y82.928 E8.09301
G1 X74.859 Y82.148 E8.11925
G1 X75.057 Y81.383 E8.14553
G1 X75.331 Y80.643 E8.17178
G1 X75.679 Y79.934 E8.19805
G1 X76.097 Y79.263 E8.22434
G1 X76.58 Y78.639 E8.25059
G1 X76.985 Y78.202 E8.2704
G1 X77.102 Y78.085 E8.27591
G0 F3600 X77.384 Y78.367
G1 F1800 X77.956 Y77.853 E8.30148
G1 X78.578 Y77.4 E8.32708
G1 X79.243 Y77.014 E8.35265
G1 X79.945 Y76.699 E8.37824
G1 X80.676 Y76.459 E8.40383
G1 X81.427 Y76.296 E8.42939
G1 X82.192 Y76.212 E8.45499
G1 X82.617 Y76.2 E8.46913
G1 X167.383 Y76.2 E11.28846
G1 X168.151 Y76.24 E11.31404
G1 X168.911 Y76.359 E11.33962
G1 X169.654 Y76.557 E11.3652
G1 X170.373 Y76.831 E11.39079
G1 X171.059 Y77.178 E11.41636
G1 X171.706 Y77.594 E11.44194
G1 X172.306 Y78.075 E11.46752
G1 X172.733 Y78.484 E11.48718
G1 X173.247 Y79.056 E11.51276
G1 X173.7 Y79.678 E11.53836
G1 X174.086 Y80.343 E11.56393
G1 X174.401 Y81.045 E11.58952
G1 X174.641 Y81.776 E11.61511
G1 X174.804 Y82.527 E11.64067
G1 X174.888 Y83.292 E11.66627
G1 X174.9 Y83.717 E11.68041
G1 X174.9 Y88.983 E11.85556
G1 X174.86 Y89.751 E11.88114
G1 X174.741 Y90.511 E11.90672
G1 X174.584 Y91.101 E11.92703
G1 X174.641 Y91.276 E11.93315
G1 X174.804 Y92.027 E11.95871
G1 X174.888 Y92.792 E11.98431
G1 X174.9 Y93.217 E11.99845
G1 X174.9 Y98.483 E12.17359
G1 X174.86 Y99.251 E12.19917
G1 X174.741 Y100.011 E12.22476
G1 X174.543 Y100.754 E12.25033
G1 X174.269 Y101.473 E12.27593
G1 X173.922 Y102.159 E12.30149
G1 X173.506 Y102.806 E12.32708
G1 X173.025 Y103.406 E12.35266
G1 X172.616 Y103.833 E12.37232
G1 X172.044 Y104.347 E12.3979
G1 X171.422 Y104.8 E12.42349
G1 X170.757 Y105.186 E12.44907
G1 X170.055 Y105.501 E12.47466
G1 X169.324 Y105.741 E12.50025
G1 X168.573 Y105.904 E12.52581
G1 X167.808 Y105.988 E12.5514
G1 X167.383 Y106 E12.56555
G1 X82.617 Y106 E15.38487
G1 X81.849 Y105.96 E15.41045
G1 X81.089 Y105.841 E15.43604
G1 X80.346 Y105.643 E15.46161
G1 X79.627 Y105.369 E15.4872
G1 X78.941 Y105.022 E15.51277
G1 X78.294 Y104.606 E15.53836
G1 X77.694 Y104.125 E15.56393
G1 X77.267 Y103.716 E15.5836
G1 X76.753 Y103.144 E15.60918
G1 X76.3 Y102.522 E15.63477
G1 X75.914 Y101.857 E15.66034
G1 X75.599 Y101.155 E15.68594
G1 X75.359 Y100.424 E15.71153
G1 X75.196 Y99.673 E15.73709
G1 X75.112 Y98.908 E15.76268
G1 X75.1 Y98.483 E15.77682
G1 X75.1 Y93.217 E15.95197
G1 X75.14 Y92.449 E15.97755
G1 X75.259 Y91.689 E16.00314
G1 X75.416 Y91.099 E16.02344
G1 X75.359 Y90.924 E16.02956
G1 X75.196 Y90.173 E16.05512
G1 X75.112 Y89.408 E16.08072
G1 X75.1 Y88.983 E16.09486
G1 X75.1 Y83.717 E16.27001
G1 X75.14 Y82.949 E16.29559
G1 X75.259 Y82.189 E16.32117
G1 X75.457 Y81.446 E16.34675
G1 X75.731 Y80.727 E16.37234
G1 X76.078 Y80.041 E16.39791
G1 X76.494 Y79.394 E16.42349
G1 X76.975 Y78.794 E16.44907
G1 X77.384 Y78.367 E16.46874
G0 F3600 X77.667 Y78.65
G1 F1800 X78.224 Y78.15 E16.49363
G1 X78.83 Y77.713 E16.51848
G1 X79.48 Y77.342 E16.54337
G1 X80.166 Y77.043 E16.56826
G1 X80.88 Y76.819 E16.59315
G1 X81.613 Y76.672 E16.61802
G1 X82.617 Y76.6 E16.6515
G1 X167.383 Y76.6 E19.47082
G1 X168.13 Y76.64 E19.49571
G1 X168.868 Y76.759 E19.52057
G1 X169.59 Y76.957 E19.54547
G1 X170.286 Y77.23 E19.57034
G1 X170.949 Y77.577 E19.59522
G1 X171.572 Y77.992 E19.62012
G1 X172.333 Y78.65 E19.65358
G1 X172.45 Y78.767 E19.65909
G1 X172.95 Y79.324 E19.68398
G1 X173.387 Y79.93 E19.70883
G1 X173.758 Y80.58 E19.73372
G1 X174.057 Y81.266 E19.75861
G1 X174.281 Y81.98 E19.7835
G1 X174.428 Y82.713 E19.80837
G1 X174.5 Y83.717 E19.84185
G1 X174.5 Y88.983 E20.01699
G1 X174.46 Y89.73 E20.04187
G1 X174.341 Y90.468 E20.06674
G1 X174.165 Y91.11 E20.08888
G1 X174.281 Y91.48 E20.10178
G1 X174.428 Y92.213 E20.12664
G1 X174.5 Y93.217 E20.16012
G1 X174.5 Y98.483 E20.33527
G1 X174.46 Y99.23 E20.36015
G1 X174.341 Y99.968 E20.38501
G1 X174.143 Y100.69 E20.40991
G1 X173.87 Y101.386 E20.43478
G1 X173.523 Y102.049 E20.45967
G1 X173.108 Y102.672 E20.48456
G1 X172.45 Y103.433 E20.51803
G1 X172.333 Y103.55 E20.52353
G1 X171.776 Y104.05 E20.54842
G1 X171.17 Y104.487 E20.57327
G1 X170.52 Y104.858 E20.59817
G1 X169.834 Y105.157 E20.62306
G1 X169.12 Y105.381 E20.64794
G1 X168.387 Y105.528 E20.67281
G1 X167.383 Y105.6 E20.70629
G1 X82.617 Y105.6 E23.52562
G1 X81.87 Y105.56 E23.5505
G1 X81.132 Y105.441 E23.57536
G1 X80.41 Y105.243 E23.60026
G1 X79.714 Y104.97 E23.62513
G1 X79.051 Y104.623 E23.65002
G1 X78.428 Y104.208 E23.67491
G1 X77.667 Y103.55 E23.70837
G1 X77.55 Y103.433 E23.71388
G1 X77.05 Y102.876 E23.73877
G1 X76.613 Y102.27 E23.76362
G1 X76.242 Y101.62 E23.78852
G1 X75.943 Y100.934 E23.81341
G1 X75.719 Y100.22 E23.83829
G1 X75.572 Y99.487 E23.86316
G1 X75.5 Y98.483 E23.89664
G1 X75.5 Y93.217 E24.07179
G1 X75.54 Y92.47 E24.09667
G1 X75.659 Y91.732 E24.12153
G1 X75.835 Y91.09 E24.14367
G1 X75.719 Y90.72 E24.15657
G1 X75.572 Y89.987 E24.18143
G1 X75.5 Y88.983 E24.21491
G1 X75.5 Y83.717 E24.39006
G1 X75.54 Y82.97 E24.41494
G1 X75.659 Y82.232 E24.4398
G1 X75.857 Y81.51 E24.4647
G1 X76.13 Y80.814 E24.48957
G1 X76.477 Y80.151 E24.51446
G1 X76.892 Y79.528 E24.53936
G1 X77.55 Y78.767 E24.57282
G1 X77.667 Y78.65 E24.57832
G0 F3600 X77.95 Y78.933
G1 F1800 X78.491 Y78.449 E24.60246
G1 X79.082 Y78.026 E24.62664
G1 X79.716 Y77.672 E24.65079
G1 X80.385 Y77.389 E24.67495
G1 X81.081 Y77.181 E24.69911
G1 X81.796 Y77.051 E24.72328
G1 X82.617 Y77 E24.75064
G1 X167.383 Y77 E27.56997
G1 X168.108 Y77.04 E27.59412
G1 X168.825 Y77.159 E27.61829
G1 X169.524 Y77.357 E27.64246
G1 X170.197 Y77.63 E27.66661
G1 X170.836 Y77.975 E27.69076
G1 X171.433 Y78.389 E27.71493
G1 X172.05 Y78.933 E27.74229
G1 X172.167 Y79.05 E27.74779
G1 X172.651 Y79.591 E27.77193
G1 X173.074 Y80.182 E27.79611
G1 X173.428 Y80.816 E27.82026
G1 X173.711 Y81.485 E27.84442
G1 X173.919 Y82.181 E27.86858
G1 X174.049 Y82.896 E27.89275
G1 X174.1 Y83.717 E27.92011
G1 X174.1 Y88.983 E28.09526
G1 X174.06 Y89.708 E28.11941
G1 X173.941 Y90.425 E28.14358
G1 X173.748 Y91.108 E28.16719
G1 X173.919 Y91.681 E28.18708
G1 X174.049 Y92.396 E28.21125
G1 X174.1 Y93.217 E28.23861
G1 X174.1 Y98.483 E28.41375
G1 X174.06 Y99.208 E28.4379
G1 X173.941 Y99.925 E28.46208
G1 X173.743 Y100.624 E28.48624
G1 X173.47 Y101.297 E28.5104
G1 X173.125 Y101.936 E28.53455
G1 X172.711 Y102.533 E28.55871
G1 X172.167 Y103.15 E28.58607
G1 X172.05 Y103.267 E28.59158
G1 X171.509 Y103.751 E28.61572
G1 X170.918 Y104.174 E28.63989
G1 X170.284 Y104.528 E28.66404
G1 X169.615 Y104.811 E28.6882
G1 X168.919 Y105.019 E28.71236
G1 X168.204 Y105.149 E28.73653
G1 X167.383 Y105.2 E28.76389
G1 X82.617 Y105.2 E31.58322
G1 X81.892 Y105.16 E31.60737
G1 X81.175 Y105.041 E31.63155
G1 X80.476 Y104.843 E31.65571
G1 X79.803 Y104.57 E31.67987
G1 X79.164 Y104.225 E31.70402
G1 X78.567 Y103.811 E31.72818
G1 X77.95 Y103.267 E31.75554
G1 X77.833 Y103.15 E31.76104
G1 X77.349 Y102.609 E31.78519
G1 X76.926 Y102.018 E31.80936
G1 X76.572 Y101.384 E31.83351
G1 X76.289 Y100.715 E31.85767
G1 X76.081 Y100.019 E31.88183
G1 X75.951 Y99.304 E31.906
G1 X75.9 Y98.483 E31.93336
G1 X75.9 Y93.217 E32.10851
G1 X75.94 Y92.492 E32.13266
G1 X76.059 Y91.775 E32.15683
G1 X76.252 Y91.092 E32.18044
G1 X76.081 Y90.519 E32.20033
G1 X75.951 Y89.804 E32.2245
G1 X75.9 Y88.983 E32.25186
G1 X75.9 Y83.717 E32.42701
G1 X75.94 Y82.992 E32.45116
G1 X76.059 Y82.275 E32.47533
G1 X76.257 Y81.576 E32.4995
G1 X76.53 Y80.903 E32.52365
G1 X76.875 Y80.264 E32.5478
G1 X77.289 Y79.667 E32.57197
G1 X77.833 Y79.05 E32.59933
G1 X77.95 Y78.933 E32.60483
G0 F3600 X78.233 Y79.216
G1 F1800 X78.758 Y78.747 E32.62824
G1 X79.333 Y78.341 E32.65166
G1 X79.951 Y78.003 E32.67508
G1 X80.602 Y77.736 E32.69849
G1 X81.28 Y77.546 E32.72191
G1 X81.975 Y77.433 E32.74532
G1 X82.617 Y77.4 E32.76671
G1 X167.383 Y77.4 E35.58603
G1 X168.086 Y77.44 E35.60945
G1 X168.78 Y77.559 E35.63287
G1 X169.455 Y77.757 E35.65627
G1 X170.104 Y78.029 E35.67968
G1 X170.718 Y78.374 E35.7031
G1 X171.289 Y78.785 E35.7265
G1 X171.767 Y79.216 E35.74791
G1 X171.884 Y79.333 E35.75341
G1 X172.353 Y79.858 E35.77682
G1 X172.759 Y80.433 E35.80024
G1 X173.097 Y81.051 E35.82366
G1 X173.364 Y81.702 E35.84707
G1 X173.554 Y82.38 E35.87049
G1 X173.667 Y83.075 E35.8939
G1 X173.7 Y83.717 E35.91529
G1 X173.7 Y88.983 E36.09043
G1 X173.66 Y89.686 E36.11385
G1 X173.541 Y90.38 E36.13727
G1 X173.343 Y91.055 E36.16067
G1 X173.323 Y91.102 E36.16237
G1 X173.364 Y91.202 E36.16596
G1 X173.554 Y91.88 E36.18938
G1 X173.667 Y92.575 E36.2128
G1 X173.7 Y93.217 E36.23418
G1 X173.7 Y98.483 E36.40933
G1 X173.66 Y99.186 E36.43275
G1 X173.541 Y99.88 E36.45617
G1 X173.343 Y100.555 E36.47957
G1 X173.071 Y101.204 E36.50297
G1 X172.726 Y101.818 E36.5264
G1 X172.315 Y102.389 E36.5498
G1 X171.884 Y102.867 E36.5712
G1 X171.767 Y102.984 E36.57671
G1 X171.242 Y103.453 E36.60012
G1 X170.667 Y103.859 E36.62353
G1 X170.049 Y104.197 E36.64696
G1 X169.398 Y104.464 E36.67036
G1 X168.72 Y104.654 E36.69378
G1 X168.025 Y104.767 E36.7172
G1 X167.383 Y104.8 E36.73858
G1 X82.617 Y104.8 E39.55791
G1 X81.914 Y104.76 E39.58133
G1 X81.22 Y104.641 E39.60475
G1 X80.545 Y104.443 E39.62815
G1 X79.896 Y104.171 E39.65155
G1 X79.282 Y103.826 E39.67498
G1 X78.711 Y103.415 E39.69838
G1 X78.233 Y102.984 E39.71978
G1 X78.116 Y102.867 E39.72529
G1 X77.647 Y102.342 E39.7487
G1 X77.241 Y101.767 E39.77211
G1 X76.903 Y101.149 E39.79554
G1 X76.636 Y100.498 E39.81894
G1 X76.446 Y99.82 E39.84236
G1 X76.333 Y99.125 E39.86578
G1 X76.3 Y98.483 E39.88716
G1 X76.3 Y93.217 E40.06231
G1 X76.34 Y92.514 E40.08573
G1 X76.459 Y91.82 E40.10915
G1 X76.657 Y91.145 E40.13255
G1 X76.677 Y91.098 E40.13424
G1 X76.636 Y90.998 E40.13784
G1 X76.446 Y90.32 E40.16126
G1 X76.333 Y89.625 E40.18468
G1 X76.3 Y88.983 E40.20606
G1 X76.3 Y83.717 E40.38121
G1 X76.34 Y83.014 E40.40463
G1 X76.459 Y82.32 E40.42805
G1 X76.657 Y81.645 E40.45144
G1 X76.929 Y80.996 E40.47485
G1 X77.274 Y80.382 E40.49827
G1 X77.685 Y79.811 E40.52167
G1 X78.116 Y79.333 E40.54308
G1 X78.233 Y79.216 E40.54858
G0 F3600 X78.516 Y79.499
G1 F1800 X79.025 Y79.046 E40.57125
G1 X79.583 Y78.657 E40.59387
G1 X80.183 Y78.335 E40.61652
G1 X80.817 Y78.086 E40.63917
G1 X81.476 Y77.913 E40.66183
G1 X82.15 Y77.819 E40.68447
G1 X82.617 Y77.8 E40.70001
G1 X167.383 Y77.8 E43.51934
G1 X168.063 Y77.84 E43.542
G1 X168.733 Y77.959 E43.56463
G1 X169.385 Y78.156 E43.58728
G1 X170.009 Y78.428 E43.60992
G1 X170.597 Y78.772 E43.63258
G1 X171.141 Y79.182 E43.65524
G1 X171.601 Y79.616 E43.67627
G1 X172.054 Y80.125 E43.69894
G1 X172.443 Y80.683 E43.72156
G1 X172.765 Y81.283 E43.74421
G1 X173.014 Y81.917 E43.76686
G1 X173.187 Y82.576 E43.78953
G1 X173.281 Y83.25 E43.81216
G1 X173.3 Y83.717 E43.8277
G1 X173.3 Y88.983 E44.00285
G1 X173.26 Y89.663 E44.02551
G1 X173.141 Y90.333 E44.04814
G1 X172.944 Y90.985 E44.0708
G1 X172.892 Y91.105 E44.07515
G1 X173.014 Y91.417 E44.08629
G1 X173.187 Y92.076 E44.10895
G1 X173.281 Y92.75 E44.13158
G1 X173.3 Y93.217 E44.14713
G1 X173.3 Y98.483 E44.32228
G1 X173.26 Y99.163 E44.34493
G1 X173.141 Y99.833 E44.36757
G1 X172.944 Y100.485 E44.39022
G1 X172.672 Y101.109 E44.41286
G1 X172.328 Y101.697 E44.43552
G1 X171.918 Y102.241 E44.45817
G1 X171.484 Y102.701 E44.47921
G1 X170.975 Y103.154 E44.50187
G1 X170.417 Y103.543 E44.5245
G1 X169.817 Y103.865 E44.54714
G1 X169.183 Y104.114 E44.5698
G1 X168.524 Y104.287 E44.59246
G1 X167.85 Y104.381 E44.61509
G1 X167.383 Y104.4 E44.63064
G1 X82.617 Y104.4 E47.44997
G1 X81.937 Y104.36 E47.47262
G1 X81.267 Y104.241 E47.49526
G1 X80.615 Y104.044 E47.51791
G1 X79.991 Y103.772 E47.54055
G1 X79.403 Y103.428 E47.56321
G1 X78.859 Y103.018 E47.58587
G1 X78.399 Y102.584 E47.6069
G1 X77.946 Y102.075 E47.62956
G1 X77.557 Y101.517 E47.65219
G1 X77.235 Y100.917 E47.67484
G1 X76.986 Y100.283 E47.69749
G1 X76.813 Y99.624 E47.72015
G1 X76.719 Y98.95 E47.74279
G1 X76.7 Y98.483 E47.75833
G1 X76.7 Y93.217 E47.93348
G1 X76.74 Y92.537 E47.95614
G1 X76.859 Y91.867 E47.97877
G1 X77.056 Y91.215 E48.00142
G1 X77.108 Y91.095 E48.00577
G1 X76.986 Y90.783 E48.01691
G1 X76.813 Y90.124 E48.03958
G1 X76.719 Y89.45 E48.06221
G1 X76.7 Y88.983 E48.07776
G1 X76.7 Y83.717 E48.2529
G1 X76.74 Y83.037 E48.27556
G1 X76.859 Y82.367 E48.29819
G1 X77.056 Y81.715 E48.32085
G1 X77.328 Y81.091 E48.34349
G1 X77.672 Y80.503 E48.36614
G1 X78.082 Y79.959 E48.3888
G1 X78.516 Y79.499 E48.40984
G0 F3600 X78.799 Y79.782
G1 F1800 X79.291 Y79.346 E48.4317
G1 X79.832 Y78.974 E48.45354
G1 X80.414 Y78.67 E48.47538
G1 X81.029 Y78.439 E48.49723
G1 X81.668 Y78.284 E48.5191
G1 X82.617 Y78.2 E48.55078
G1 X167.383 Y78.2 E51.37011
G1 X168.039 Y78.24 E51.39197
G1 X168.685 Y78.359 E51.41382
G1 X169.312 Y78.556 E51.43568
G1 X169.91 Y78.828 E51.45753
G1 X170.471 Y79.17 E51.47938
G1 X171.201 Y79.782 E51.51107
G1 X171.318 Y79.899 E51.51657
G1 X171.754 Y80.391 E51.53843
G1 X172.126 Y80.932 E51.56027
G1 X172.43 Y81.514 E51.58211
G1 X172.661 Y82.129 E51.60396
G1 X172.816 Y82.768 E51.62583
G1 X172.9 Y83.717 E51.65752
G1 X172.9 Y88.983 E51.83266
G1 X172.86 Y89.639 E51.85452
G1 X172.741 Y90.285 E51.87637
G1 X172.544 Y90.912 E51.89823
G1 X172.461 Y91.095 E51.90491
G1 X172.661 Y91.629 E51.92388
G1 X172.816 Y92.268 E51.94575
G1 X172.9 Y93.217 E51.97744
G1 X172.9 Y98.483 E52.15258
G1 X172.86 Y99.139 E52.17444
G1 X172.741 Y99.785 E52.19629
